web/ui/src/components/theme/link/svgs/add.svg

<svg height="16" viewBox="0 0 16 16" width="16" xmlns="http://www.w3.org/2000/svg"><g fill="none"><path d="m0 0h16v16h-16z" fill="#000" opacity="0" stroke="#2d2e2e"/><path d="m12.8463715 1c1.1881235 0 2.1536285.96525278 2.1536285 2.1536495v2.69233579c.0028246.26426671-.1920003.4859352-.4504893.53028862l-.0883372.00803245c-.3006955-.00401732-.5411726-.2446914-.537607-.53832107v-2.69233579c0-.59492878-.4813505-1.07664214-1.077195-1.07664214h-9.69237773c-.59544834 0-1.07719497.48098294-1.07719497 1.07664214v9.692701c0 .595294.48174663 1.0766421 1.07759114 1.0766421h4.84599077c.29831843 0 .53879558.2406741.53879558.5386863.00285244.2642667-.1919697.4859352-.45045846.5302886l-.08833712.0080325h-4.84638694c-1.18851964 0-2.15399377-.9652528-2.15399377-2.1536495v-9.692701c0-1.18839672.96507795-2.1536495 2.15399377-2.1536495zm-1.3463715 7c.2761424 0 .5.22385763.5.5l-.0003423 2.508 2.537.000024c.2761423 0 .5.2238577.5.5 0 .2761424-.2238577.5-.5.5l-2.537-.000024.0003423 2.492c0 .2761424-.2238576.5-.5.5s-.5-.2238576-.5-.5l-.0003423-2.492-2.46300004.000024c-.27614237 0-.5-.2238576-.5-.5 0-.2761423.22385763-.5.5-.5l2.46300004-.000024.0003423-2.508c0-.27614237.2238576-.5.5-.5z" fill="#096dd9"/></g></svg>

<?xml version="1.0" encoding="UTF-8"?>
<svg width="16px" height="16px" viewBox="0 0 16 16" version="1.1" xmlns="http://www.w3.org/2000/svg" xmlns:xlink="http://www.w3.org/1999/xlink">
    <title>add</title>
    <g id="页面-1" stroke="none" stroke-width="1" fill="none" fill-rule="evenodd">
        <g id="系统设计规范" transform="translate(-351.000000, -5522.000000)" fill-rule="nonzero">
            <g id="add" transform="translate(351.000000, 5522.000000)">
                <rect id="矩形" stroke="#2D2E2E" fill="#000000" opacity="0" x="0" y="0" width="16" height="16"></rect>
                <path d="M12.8463715,1 C14.034495,1 15,1.96525278 15,3.1536495 L15,5.84598529 C15.0028246,6.110252 14.8079997,6.33192049 14.5495107,6.37627391 L14.4611735,6.38430636 L14.4611735,6.38430636 C14.160478,6.38028904 13.9200009,6.13961496 13.9235665,5.84598529 L13.9235665,3.1536495 C13.9235665,2.55872072 13.442216,2.07700736 12.8463715,2.07700736 L3.15399377,2.07700736 C2.55854543,2.07700736 2.0767988,2.5579903 2.0767988,3.1536495 L2.0767988,12.8463505 C2.0767988,13.4416445 2.55854543,13.9229926 3.15438994,13.9229926 L8.00038071,13.9229926 C8.29869914,13.9229926 8.53917629,14.1636667 8.53917629,14.4616789 C8.54202873,14.7259456 8.34720659,14.9476141 8.08871783,14.9919675 L8.00038071,15 L8.00038071,15 L3.15399377,15 C1.96547413,15 1,14.0347472 1,12.8463505 L1,3.1536495 C1,1.96525278 1.96507795,1 3.15399377,1 L12.8463715,1 Z M11.5,8 C11.7761424,8 12,8.22385763 12,8.5 L11.9996577,11.008 L14.5366577,11.008024 C14.8128,11.008024 15.0366577,11.2318817 15.0366577,11.508024 C15.0366577,11.7841664 14.8128,12.008024 14.5366577,12.008024 L11.9996577,12.008 L12,14.5 C12,14.7761424 11.7761424,15 11.5,15 C11.2238576,15 11,14.7761424 11,14.5 L10.9996577,12.008 L8.53665766,12.008024 C8.26051529,12.008024 8.03665766,11.7841664 8.03665766,11.508024 C8.03665766,11.2318817 8.26051529,11.008024 8.53665766,11.008024 L10.9996577,11.008 L11,8.5 C11,8.22385763 11.2238576,8 11.5,8 Z" id="路径-10" fill="#096DD9"></path>
            </g>
        </g>
    </g>
</svg>
